X:37
T:Road to Lisdoonvarna
M:12/8
L:1/8
K:EDor
D|E2 B B2 A B2 c d3|F2 A ABA D2 E FED|
E2 B B2 A B2 c d3|cdc B2 A B2 E E2:|:B|
e2 f gfe d2 B Bcd|c2 A ABc d2 B B3|e2 f gfe d2 B Bcd|cdc B2 A B2
E E2:|
